X:1
T:Titel (500)
T:Now, oh now, I needs must part
T:John Dowland (1563-1626)
T: 
T:521
T:521
C:John Dowland
%%score 1 2 3 4
L:1/8
Q:1/2=108
M:6/2
K:G
V:1 treble nm="S" snm="S"
V:2 treble nm="A" snm="A"
V:3 treble-8 nm="T" snm="T"
V:4 bass nm="B" snm="B"
V:1
 B8 A4 G8 F4 | E8 G4 A12 | B8 d4 c8 B4 | A8 B4 A4- A8 | B8 A4 G8 F4 | E8 G4 A12 | %6
w: 1. Now, oh now I|needs must part,|Part- ing though I|ab- sent mourn. _|Ab- sence can no|joy im- part;|
w: While I live I|needs must love,|Love lives not when|hope is gone, _|Now at last des-|pair doth prove,|
w: 2. Dear, when I from|thee am gone,|Gone are all my|joys at once. _|I lov'd thee and|thee a- lone,|
w: And al- though your|sight I leave,|Sight where- in my|joys do lie. _|Till that death doth|sense be- reave,|
w: 3. Dear, if I do|not re- turn,|Love and I shall|die to- ge- ther;|For my ab- sence|ne- ver mourn,|
w: Part we must though|now I die,|Die I do to|part with you. _|Him des- pair doth|cause to lie,|
 B4 d4 c4- c2 c2 B4 A4 | G4- G8- G8 z4 :| c8 c4 c8 e4 | d8 e4 d12 | c6 c2 B4 A4 c4 B4 | %11
w: joy once fled _ can not re-|turn. _ _|Sad des- pair doth|drive me hence;|This des- pair un- kind- ness|
w: Love di- vi- * ded lov- eth|none. _ _|_ _ _ _|||
w: In whose love _ I joy- ed|once. _ _|_ _ _ _|||
w: Ne- ver shall _ af- fec- tion|die. _ _|_ _ _ _|||
w: Whom you might _ have joy- ed|e- ver. _|_ _ _ _|||
w: Who both liv'd _ and di- eth|true. _ _|_ _ _ _|||
 A12- A8 z4 | B8 A4 G8 F4 | E8 G4 A12 | B4 d4 c4- c2 c2 B4 A4 | G24 |] %16
w: sends. _|If that part- ing|be of- fence,|It is she _ which then of-|fends.|
w: |||||
w: |||||
w: |||||
w: |||||
w: |||||
V:2
 G8 F4 E8 D4 | C8 B,4 D12 | D8 G4 (G6 F2) G4 | F8 G4 F4- F8 | G8 F4 E8 D4 | C8 B,4 D12 | %6
w: 1. Now, oh now I|needs must part,|Part- ing though _ I|ab- sent mourn. _|Ab- sence can no|joy im- part;|
w: While I live I|needs must love,|Love lives not _ when|hope is gone, _|Now at last des-|pair doth prove,|
 D6 D2 E2 F2 G8 F4 | D4- D8- D8 z4 :| E8 E4 (E6 D2) (E2 F2) | G8 (E2 F2) G12 | E4 A4 G4 A4 A4 ^G4 | %11
w: joy once fled can- not re-|turn. _ _|Sad des- pair _ doth _|drive me * hence;|This des- pair un- kind- ness|
w: Love di- vi- ded lov- eth|none. _ _|_ _ _ _ _ _|||
 E12- E8 z4 | G8 F4 E8 D4 | C8 B,4 D12 | D6 D2 E2 F2 G8 F4 | B,24 |] %16
w: sends. _|If that part- ing|be of- fence,|It is she which then of-|fends.|
w: |||||
V:3
 d8 d4 B8 B4 | (G2 F2) (G6 g2) f12 | g8 B4 e8 d4 | d8 d4 d4- d8 | d8 d4 B8 B4 | %5
w: 1. Now, oh now I|needs _ must _ part,|Part- ing though I|ab- sent mourn. _|Ab- sence can no|
w: While I live I|needs _ must _ love,|Love lives not when|hope is gone, _|Now at last des-|
 (G2 F2) (G6 g2) f12 | g4 B4 G4- G2 e2 d6 c2 | (B4- B3 c B3 A B8) z4 :| G8 G4 G8 G4 | %9
w: joy _ im- * part;|joy once fled _ can- not re-|turn. _ _ _ _ _|Sad des- pair doth|
w: pair _ doth _ prove,|Love di- vi- * ded lov- eth|none. _ _ _ _ _|_ _ _ _|
 (G4 B4) G4 (G6 A2 B4) | A4 A4 B4 d4 e6 d2 | (^c4- c3 d c3 B c8) z4 | d8 d4 B8 B4 | %13
w: drive _ me hence; _ _|pair, des- pair un- kind- ness|sends. * * * * *|If that part- ing|
w: ||||
 (G2 F2) (G6 g2) f12 | g4 B4 G4- G2 e2 d6 c2 | (B4- B3 c B3 A B12) |] %16
w: be _ of- * fence,|It is she _ which then of-|fends. _ _ _ _ _|
w: |||
V:4
 G,8 D,4 E,8 B,,4 | C,8 E,4 D,12 | G,8 G,4 C8 G,4 | D,8 G,,4 D,4- D,8 | G,8 D,4 E,8 B,,4 | %5
w: 1. Now, oh now I|needs must part,|Part- ing though I|ab- sent mourn. _|Ab- sence can no|
w: While I live I|needs must love,|Love lives not when|hope is gone, _|Now at last des-|
 C,8 E,4 D,12 | G,,4 G,,4 C,4 C,4 D,4 D,4 | G,,4- G,,8- G,,8 z4 :| C,8 C,4 C,8 C,4 | %9
w: joy im- part;|joy once fled can not re-|turn. _ _|Sad des- pair doth|
w: pair doth prove,|Love di- vi- ded lov- eth|none. _ _|_ _ _ _|
 (B,,4 G,,4) C,4 (B,,4 G,,8) | A,,6 A,,2 E,4 =F,4 E,4 E,4 | A,,12- A,,8 z4 | G,8 D,4 E,8 B,,4 | %13
w: drive _ me hence; _|This des- pair un- kind- ness|sends. _|If that part- ing|
w: ||||
 C,8 E,4 D,12 | G,,4 G,,4 C,4 C,4 D,4 D,4 | G,,24 |] %16
w: be of- fence,|It is she which then of-|fends.|
w: |||

